;START_OF_HEADER
;HEADER_VERSION:0.1
;FLAVOR:Griffin
;GENERATOR.NAME:Cura_SteamEngine
;GENERATOR.VERSION:4.6.1
;GENERATOR.BUILD_DATE:2020-04-29
;TARGET_MACHINE.NAME:Ultimaker 3
;EXTRUDER_TRAIN.0.INITIAL_TEMPERATURE:210
;EXTRUDER_TRAIN.0.MATERIAL.VOLUME_USED:66415
;EXTRUDER_TRAIN.0.MATERIAL.GUID:506c9f0d-e3aa-4bd4-b2d2-23e2425b1aa9
;EXTRUDER_TRAIN.0.NOZZLE.DIAMETER:0.4
;EXTRUDER_TRAIN.0.NOZZLE.NAME:AA 0.4
;BUILD_PLATE.TYPE:glass
;BUILD_PLATE.INITIAL_TEMPERATURE:60
;PRINT.TIME:16980
;PRINT.GROUPS:1
;PRINT.SIZE.MIN.X:0.905
;PRINT.SIZE.MIN.Y:6
;PRINT.SIZE.MIN.Z:0.27
;PRINT.SIZE.MAX.X:212.316
;PRINT.SIZE.MAX.Y:170.898
;PRINT.SIZE.MAX.Z:27.27
;END_OF_HEADER
;Generated with Cura_SteamEngine 4.6.1
T0
M82 ;absolute extrusion mode

G92 E0
M109 S210
G0 F15000 X9 Y6 Z2
G280
G1 F1500 E-6.5
;LAYER_COUNT:1
;LAYER:0
M204 S500
M205 X5 Y5
;TYPE:WALL-OUTER
;MESH:Body (0)
G1 F3000 X123.293 Y105.397 E296.88836
G1 X122.99 Y103.713 E296.90714
G1 X123.035 Y102.009 E296.92584
G1 X123.421 Y100.355 E296.94448
G1 X124.135 Y98.81 E296.96315
G1 X125.148 Y97.439 E296.98186
G1 X126.5 Y96.227 E297.00178
G1 X122.777 Y74.968 E297.2386
G1 X122.733 Y74.682 E297.24178
G1 X122.683 Y73.32 E297.25673
G1 X122.902 Y71.941 E297.27205
G1 X123.405 Y70.598 E297.28779
G1 X124.172 Y69.38 E297.30358
G1 X125.206 Y68.31 E297.31991
G1 X126.453 Y67.474 E297.33639
G1 X127.802 Y66.933 E297.35233
G1 X181.635 Y51.496 E297.96684
G1 X183.435 Y51.206 E297.98685
G1 X185.231 Y51.347 E298.00661
G1 X186.945 Y51.91 E298.02641
G1 X188.48 Y52.862 E298.04623
G1 X189.747 Y54.152 E298.06607
G1 X190.677 Y55.709 E298.08597
G1 X204.291 Y86.287 E298.45325
G1 X204.953 Y88.279 E298.47628
G1 X205.213 Y90.36 E298.4993
G1 X205.062 Y92.451 E298.5223
G1 X204.506 Y94.473 E298.54531
G1 X203.569 Y96.341 E298.56824
G1 X202.284 Y97.993 E298.59121
G1 X200.699 Y99.365 E298.61421
G1 X198.869 Y100.406 E298.63731
G1 X177.834 Y109.771 E298.88997
G1 X172.507 Y111.951 E298.95312
G1 X167.045 Y113.805 E299.01642
G1 X161.482 Y115.321 E299.07968
G1 X155.84 Y116.495 E299.14292
G1 X144.077 Y118.569 E299.27398
G1 X140.815 Y119.342 E299.31077
G1 X137.66 Y120.49 E299.34761
G1 X134.663 Y121.995 E299.38441
G1 X79.673 Y153.743 E300.08114
G1 X75.188 Y156.128 E300.13688
G1 X70.556 Y158.19 E300.19252
G1 X65.799 Y159.921 E300.24806
G1 X60.925 Y161.319 E300.3037
G1 X55.959 Y162.374 E300.35941
G1 X50.854 Y163.274 E300.41629
G1 X47.162 Y163.728 E300.45711
G1 X43.453 Y163.795 E300.49781
G1 X39.768 Y163.475 E300.5384
G1 X36.117 Y162.769 E300.5792
G1 X32.576 Y161.692 E300.61981
G1 X29.162 Y160.249 E300.66048
G1 X25.91 Y158.455 E300.70124
G1 X19.049 Y154.187 E300.7899
G1 X16.471 Y152.331 E300.82476
G1 X14.16 Y150.135 E300.85974
G1 X12.171 Y147.655 E300.89462
G1 X10.536 Y144.93 E300.92949
G1 X9.282 Y142.006 E300.9644
G1 X8.432 Y138.931 E300.99941
G1 X8.008 Y135.789 E301.0342
G1 X8.011 Y132.603 E301.06916
G1 X8.443 Y129.459 E301.10398
G1 X9.299 Y126.387 E301.13897
G1 X10.559 Y123.467 E301.17387
G1 X12.201 Y120.743 E301.20877
G1 X14.198 Y118.266 E301.24368
G1 X16.507 Y116.082 E301.27856
G1 X19.09 Y114.23 E301.31343
G1 X21.916 Y112.735 E301.34851
G1 X78.796 Y87.411 E302.03171
G1 X81.15 Y86.594 E302.05905
G1 X83.621 Y86.186 E302.08653
G1 X86.117 Y86.201 E302.11392
G1 X88.571 Y86.639 E302.14127
G1 X90.926 Y87.489 E302.16875
G1 X93.093 Y88.72 E302.19609
G1 X95.024 Y90.302 E302.22348
G1 X96.671 Y92.202 E302.25108
G1 X114.067 Y116.104 E302.57546
G1 X124.971 Y111.25 E302.70642
M204 S5000
M205 X30 Y30
G0 F15000 X124.916 Y111.058
G0 X125.012 Y111.032
G0 X126.739 Y111.832
M204 S4000
M205 X25 Y25
;TYPE:FILL
G1 F4200 X185.511 Y53.06 E303.80085
G1 X184.924 Y52.868 E303.80898
G1 X183.499 Y52.755 E303.8278
G1 X182.095 Y52.982 E303.84653
G1 X125.96 Y109.117 E304.89185
G1 X125.181 Y106.401 E304.92905
G1 X177.22 Y54.362 E305.8981
G1 X172.321 Y55.767 E305.9652
G1 X124.535 Y103.552 E306.85504
G1 X124.57 Y102.204 E306.8728
G1 X124.884 Y100.861 E306.89096
G1 X125.469 Y99.594 E306.90933
G1 X126.289 Y98.484 E306.9275
G1 X128.163 Y96.801 E306.96067
G1 X128.107 Y96.486 E306.96488
G1 X167.421 Y57.172 E307.69697
G1 X162.522 Y58.576 E307.76407
G1 X127.587 Y93.512 E308.41462
G1 X127.066 Y90.538 E308.45438
G1 X157.623 Y59.981 E309.0234
G1 X152.723 Y61.386 E309.09052
G1 X126.545 Y87.564 E309.57799
G1 X126.025 Y84.59 E309.61774
G1 X147.824 Y62.791 E310.02368
G1 X142.925 Y64.196 E310.09078
G1 X125.504 Y81.617 E310.41519
G1 X124.983 Y78.643 E310.45494
G1 X138.025 Y65.601 E310.69781
G1 X133.126 Y67.005 E310.76491
G1 X124.462 Y75.669 E310.92625
G1 X124.293 Y74.702 E310.93917
G1 X124.266 Y74.533 E310.94143
G1 X124.225 Y73.414 E310.95617
G1 X124.399 Y72.333 E310.97059
G1 X124.456 Y72.181 E310.97272
G1 X128.211 Y68.426 E311.04265
M204 S5000
M205 X30 Y30
G0 F15000 X201.544 Y96.434
M204 S4000
M205 X25 Y25
G1 F4200 X200.35 Y97.628 E311.06488
G1 X199.803 Y98.101 E311.0744
G1 X198.17 Y99.031 E311.09915
G1 X193.272 Y101.211 E311.16974
G1 X203.633 Y90.851 E311.36267
G1 X203.666 Y90.399 E311.36864
G1 X203.444 Y88.621 E311.39223
G1 X203.175 Y87.814 E311.40343
G1 X186.974 Y104.015 E311.70512
G1 X180.675 Y106.819 E311.79591
G1 X202.173 Y85.321 E312.19623
G1 X201.096 Y82.904 E312.23107
G1 X174.55 Y109.45 E312.7254
G1 X171.968 Y110.506 E312.76213
G1 X168.987 Y111.518 E312.80358
G1 X200.02 Y80.485 E313.38147
G1 X198.944 Y78.067 E313.41631
G1 X163.963 Y113.047 E314.0677
G1 X161.114 Y113.824 E314.10659
G1 X159.318 Y114.198 E314.13074
G1 X197.867 Y75.649 E314.84858
G1 X196.791 Y73.231 E314.88343
G1 X154.932 Y115.09 E315.66291
G1 X150.689 Y115.838 E315.71964
G1 X195.715 Y70.813 E316.55808
G1 X194.638 Y68.395 E316.59294
G1 X146.446 Y116.587 E317.49034
G1 X143.764 Y117.06 E317.5262
G1 X142.079 Y117.459 E317.54901
G1 X193.561 Y65.977 E318.50768
G1 X192.485 Y63.559 E318.54253
G1 X136.895 Y119.149 E319.5777
G1 X133.935 Y120.637 E319.62132
G1 X129.15 Y123.4 E319.69407
G1 X191.408 Y61.141 E320.85342
G1 X190.332 Y58.723 E320.88827
G1 X120.882 Y128.173 E322.18153
G1 X112.615 Y132.945 E322.30722
G1 X189.245 Y56.315 E323.73419
G1 X188.52 Y55.1 E323.75282
G1 X187.749 Y54.317 E323.76729
G1 X104.347 Y137.718 E325.32035
G1 X96.08 Y142.491 E325.44604
G1 X126.172 Y112.399 E326.0064
G1 X119.874 Y115.203 E326.09718
G1 X87.812 Y147.264 E326.69421
G1 X79.545 Y152.037 E326.81991
G1 X113.575 Y118.007 E327.45359
G1 X113.554 Y118.016 E327.4539
G1 X112.087 Y116.001 E327.48671
G1 X72.41 Y155.678 E328.22556
G1 X69.985 Y156.757 E328.26051
G1 X66.606 Y157.987 E328.30786
G1 X110.615 Y113.978 E329.12737
G1 X109.143 Y111.956 E329.1603
G1 X61.566 Y159.533 E330.04626
G1 X60.553 Y159.823 E330.06013
G1 X57.033 Y160.571 E330.10752
G1 X107.671 Y109.933 E331.05047
G1 X106.198 Y107.911 E331.08341
G1 X52.731 Y161.378 E332.07905
G1 X50.627 Y161.749 E332.10718
G1 X48.619 Y161.996 E332.13382
G1 X104.727 Y105.888 E333.17864
G1 X103.255 Y103.866 E333.21157
G1 X44.893 Y162.227 E334.29835
G1 X43.506 Y162.252 E334.31661
G1 X41.543 Y162.083 E334.34256
G1 X101.783 Y101.843 E335.46431
G1 X100.31 Y99.821 E335.49725
G1 X38.476 Y161.655 E336.6487
G1 X36.488 Y161.269 E336.67536
G1 X35.628 Y161.009 E336.68719
G1 X98.838 Y97.799 E337.86426
G1 X97.367 Y95.776 E337.89719
G1 X32.959 Y160.183 E339.09656
G1 X30.503 Y159.144 E339.13167
G1 X95.894 Y93.753 E340.34935
G1 X95.461 Y93.157 E340.35905
G1 X94.316 Y91.837 E340.38206
G1 X28.196 Y157.957 E341.61331
G1 X26.691 Y157.126 E341.63595
G1 X25.977 Y156.682 E341.64702
G1 X92.463 Y90.196 E342.88509
G1 X92.213 Y89.992 E342.88934
G1 X90.279 Y88.891 E342.91864
M204 S5000
M205 X30 Y30
G0 F15000 X90.275 Y88.889
M204 S4000
M205 X25 Y25
G1 F4200 X23.823 Y155.342 E344.15609
G1 X21.668 Y154.002 E344.1895
G1 X87.634 Y88.036 E345.41789
G1 X85.972 Y87.739 E345.44012
G1 X84.446 Y87.729 E345.46021
G1 X19.536 Y152.639 E346.66893
G1 X17.503 Y151.178 E346.7019
G1 X80.089 Y88.591 E347.86735
G1 X79.355 Y88.846 E347.87758
G1 X73.92 Y91.266 E347.95592
G1 X15.706 Y149.48 E349.03995
G1 X15.298 Y149.093 E349.04736
G1 X14.097 Y147.595 E349.07264
G1 X67.622 Y94.07 E350.06936
G1 X61.323 Y96.875 E350.16015
G1 X12.683 Y145.514 E351.06589
G1 X11.909 Y144.224 E351.0857
G1 X11.479 Y143.223 E351.10004
G1 X55.024 Y99.679 E351.91091
G1 X48.725 Y102.483 E352.0017
G1 X10.516 Y140.692 E352.7132
G1 X9.944 Y138.623 E352.74147
G1 X9.842 Y137.871 E352.75146
G1 X42.426 Y105.288 E353.35822
G1 X36.126 Y108.093 E353.44902
G1 X9.549 Y134.67 E353.94393
G1 X9.551 Y132.708 E353.96976
G1 X9.795 Y130.93 E353.99339
G1 X29.827 Y110.897 E354.36643
G1 X23.528 Y113.702 E354.45722
G1 X11.077 Y126.153 E354.68908
M204 S5000
M205 X30 Y30
;MESH:NONMESH
G0 F600 X11.077 Y126.153 Z7.47
G0 F15000 X114.057 Y116.142
G0 X125.061 Y111.292
G0 X124.971 Y111.25
;TIME_ELAPSED:6784.067644
;End of Gcode
;SETTING_3 {"extruder_quality": ["[general]\\nversion = 4\\nname = Fast #2\\ndef
;SETTING_3 inition = ultimaker3\\n\\n[metadata]\\ntype = quality_changes\\nquali
;SETTING_3 ty_type = draft\\nposition = 0\\n\\n[values]\\ninfill_before_walls = 
;SETTING_3 False\\ninfill_enable_travel_optimization = True\\ninfill_overlap = -
;SETTING_3 300\\ninfill_pattern = zigzag\\ninfill_sparse_density = 17\\nouter_in
;SETTING_3 set_first = True\\nskin_overlap = -500\\nwall_line_count = 1\\n\\n", 
;SETTING_3 "[general]\\nversion = 4\\nname = Fast #2\\ndefinition = ultimaker3\\
;SETTING_3 n\\n[metadata]\\ntype = quality_changes\\nquality_type = draft\\nposi
;SETTING_3 tion = 1\\n\\n[values]\\n\\n"], "global_quality": "[general]\\nversio
;SETTING_3 n = 4\\nname = Fast #2\\ndefinition = ultimaker3\\n\\n[metadata]\\nty
;SETTING_3 pe = quality_changes\\nquality_type = draft\\n\\n[values]\\n\\n"}
